X: 351
T: Mountain Ranger
B: jims roots
M:2/4
L:1/8
R: Hornpipe
Q: 1/4=100
K:Bb
V:1 
%S:O'Neill &#8211; Music of Ireland (1903), No. 1583
FE | "Bb"DFBc d2cd | "Eb"edcB G2FE | "Bb"DFBc dBAB | "F"gfdB c2FE |
     "Bb"DFBc d2cd | "Eb"edcB G2FE | "Bb"DFBd "F"cBAc | "Bb"B2d2 [B2D] :|
|: Bc | "Bb"dBAB GBFB | DFBc dBAB | "Eb"gBfB edcB | GccB "F"ABce |
        "Bb"dBAB GBFB | DFBc dBAB | "Eb"gBfB edcB | "F"AFGA "Bb"[B2D] :|]
% abcbook-tune_id 6298c245d880dcdbac9b6d22


% abcbook-boost 0
% abcbook-tablature 
% abcbook-transpose 
% abcbook-lastupdated 1654178373150
% abcbook-soundfonts 
% abcbook-repeats 1


